folder-network-outline.svg

<svg fill="currentColor" viewBox="0 0 24 24"><path d="M15 20c0-.55-.45-1-1-1h-1v-2h6c1.11 0 2-.89 2-2V7a2 2 0 0 0-2-2h-6l-2-2H5c-1.1 0-2 .9-2 2v10a2 2 0 0 0 2 2h6v2h-1c-.55 0-1 .45-1 1H2v2h7c0 .55.45 1 1 1h4c.55 0 1-.45 1-1h7v-2zM5 15V7h14v8z"/></svg>

<svg  viewBox="0 0 24 24" fill="currentColor"><path  d="M15 20C15 19.45 14.55 19 14 19H13V17H19C20.11 17 21 16.11 21 15V7C21 5.9 20.11 5 19 5H13L11 3H5C3.9 3 3 3.9 3 5V15C3 16.11 3.9 17 5 17H11V19H10C9.45 19 9 19.45 9 20H2V22H9C9 22.55 9.45 23 10 23H14C14.55 23 15 22.55 15 22H22V20H15M5 15V7H19V15H5Z"/></svg>
